X: 9
T: HORNPIPE: Callaghan's High
C: C: Trad.; S: Pádraig O'Keeffe
C: Set Leaders: Anton, Sophie
Z: Anton Zille ed.; brailsford at The Session
N: https://thesession.org/members/26966/sets/94459
R: Hornpipe
M: 4/4
L: 1/8
Q: 1/2=82
K: Gmaj
g>f|(3efg f>g e>AB>A|G>AB>d d>BG>E|D>EG>A B>GB>d|(3efg f>g e>dB>d|
(3gag f>g e>dB>d|(3efg f>a g>fe>d|(3BdB G>B (3ABA F>A|G2 G>F G2 B>d|
e>gf>g e>dB>A|G>AB>e d>BG>E|D>EG>A ~B3d|(3efg f>g e>dB>d|
(3gag f>g e>dB>d|(3efg a>f g>fe>d|(3BdB G>B (3ABA F>A|G2 G>F G2 (3efg||
a>fg>e d>eg>a|b>BB>A G2 f>g|(3agf (3gfe d>eg>a|b2 e2 e3g|
(3faf (3def g>fe>g|f>e (3def g>fe>f|(3gab a>f g>fe>d|B>AB>d e2 f>g|
a>fg>e d>eg>a|b>BB>A G>ef>g|(3agf (3gfe d>eg>a|b2 e2 e3g|
(3faf (3def g>fe>g|f>e (3def g>fe>f|(3gab (3agf (3gfe (3fed|B>de>f g2 f>g||

